resources/svg/dashboard.svg

<svg xmlns="http://www.w3.org/2000/svg" viewBox="0 0 24 24" fill="currentColor"><path fill="none" stroke="currentColor" stroke-width="2" d="M12,22 C17.5228475,22 22,17.5228475 22,12 C22,6.4771525 17.5228475,2 12,2 C6.4771525,2 2,6.4771525 2,12 C2,17.5228475 6.4771525,22 12,22 Z M15,16 C15,14.3431458 13.6568542,13 12,13 C10.3431458,13 9,14.3431458 9,16 M5,5 L7,7 M12,7 L12,13 M12,3 L12,5 M19,12 L21,12 M3,12 L5,12 M17,7 L19,5 M3,17 L21,17"/></svg>

<svg viewBox="0 0 24 24"><path fill="none" stroke="currentColor" stroke-width="2" d="M12 22c5.523 0 10-4.477 10-10S17.523 2 12 2S2 6.477 2 12s4.477 10 10 10zm3-6a3 3 0 0 0-6 0M5 5l2 2m5 0v6m0-10v2m7 7h2M3 12h2m12-5l2-2M3 17h18"/></svg>
